X: 14713
T: Gan Ainm
R: jig
M: 6/8
K: Gmajor
d2 d d2 d|def g3|DEF GFG|BAA ABc|
d2 d d2 d|def g3|DEF GFG|A3 G3||
dBB B2 d|gfe d2 e|dBG GFG|BAA ABc|
dBB B2 d|gfe d2 e|dBG B2 A|G3 G3||

